icon/fa/circle-pause.svg

<svg xmlns="http://www.w3.org/2000/svg" viewBox="0 0 512 512"><!--! Font Awesome Free 6.1.2 by @fontawesome - https://fontawesome.com License - https://fontawesome.com/license/free (Icons: CC BY 4.0, Fonts: SIL OFL 1.1, Code: MIT License) Copyright 2022 Fonticons, Inc.--><path d="M256 0C114.6 0 0 114.6 0 256s114.6 256 256 256 256-114.6 256-256S397.4 0 256 0zm-32 191.1v128c0 18.6-14.3 32.9-32 32.9s-32-14.3-32-32V191.1c0-16.8 14.3-31.1 31.1-31.1s32.9 14.3 32.9 31.1zm128 0v128c0 18.6-14.3 32.9-32 32.9s-32-14.3-32-32V191.1c0-16.8 14.3-31.1 31.1-31.1s32.9 14.3 32.9 31.1z"/></svg>

<svg xmlns="http://www.w3.org/2000/svg" viewBox="0 0 512 512" height="1em" width="1em">
<!--! Font Awesome Free 6.1.2 by @fontawesome - https://fontawesome.com License - https://fontawesome.com/license/free (Icons: CC BY 4.0, Fonts: SIL OFL 1.1, Code: MIT License) Copyright 2022 Fonticons, Inc.-->
  <path d="M256 0C114.6 0 0 114.6 0 256s114.6 256 256 256s256-114.6 256-256S397.4 0 256 0zM224 191.1v128C224 337.7 209.7 352 192 352S160 337.7 160 320V191.1C160 174.3 174.3 160 191.1 160S224 174.3 224 191.1zM352 191.1v128C352 337.7 337.7 352 320 352S288 337.7 288 320V191.1C288 174.3 302.3 160 319.1 160S352 174.3 352 191.1z"/>
</svg>
